X:724
L:1/16
M:2/4
K:A
 af | e2A2 (dc)BA | e2A2 (dc)BA | G2(B2 B2)af | e2A2 (dc)BA | a2A2 (dc)BA | E2A2A2 :| cd | 
 e2fg (ag)fe | (fe)dc (dc)BA | G2(B2B2)cd | e2fg (ag)fe | (fe)dc (dc)BA | E2(A2A2)cd | 
 e2fg (ag)fe | (fe)dc (dc)BA | G2(B2B2)cd | e2fg (ag)fe | (fe)dc a2>E2 | F2A2A2 ||

